assets/dovetail/mono.svg

<svg viewBox="0 0 24 24" xmlns="http://www.w3.org/2000/svg"><path d="m6.75 0-5.25 3 5.25 3v6l5.25-3v-6zm0 12-5.25 3 5.25 3v6l5.25-3v-6zm10.5-6-5.25 2.966 5.25 3.034v6l5.25-3v-6z"/></svg>

<svg xmlns="http://www.w3.org/2000/svg" viewBox="0 0 24 24"><path d="M6.75 0 1.5 3l5.25 3v6L12 9V3zm0 12L1.5 15l5.25 3v6L12 21v-6zm10.5-6L12 8.966 17.25 12v6l5.25-3V9z"/></svg>
